ghost/admin/public/assets/icons/twitter-logo.svg

<svg width="384" height="312" viewBox="0 0 384 312" fill="none" xmlns="http://www.w3.org/2000/svg">
<path d="M120.764 312C265.676 312 344.924 191.977 344.924 87.8966C344.924 84.488 344.855 81.095 344.701 77.7161C360.121 66.5614 373.428 52.7502 384 36.9299C369.883 43.2042 354.693 47.4271 338.757 49.3311C355.023 39.5803 367.51 24.1543 373.402 5.76654C357.936 14.9385 341.017 21.4043 323.374 24.8851C308.997 9.57528 288.53 0 265.866 0C222.359 0 187.077 35.2732 187.077 78.7527C187.077 84.9342 187.77 90.9449 189.122 96.7122C123.643 93.4183 65.5805 62.0763 26.7223 14.4191C19.7236 26.4392 16.0424 40.1002 16.0546 54.0072C16.0546 81.3337 29.9629 105.457 51.1141 119.57C38.6029 119.188 26.3664 115.81 15.4334 109.719C15.4217 110.049 15.4217 110.372 15.4217 110.725C15.4217 148.869 42.5779 180.717 78.6271 187.934C71.8566 189.777 64.8702 190.709 57.8529 190.705C52.7852 190.705 47.8462 190.207 43.0462 189.286C53.0763 220.581 82.1604 243.355 116.643 243.991C89.678 265.12 55.7104 277.706 18.7926 277.706C12.5124 277.711 6.23732 277.347 0 276.615C34.8675 298.958 76.2693 311.995 120.768 311.995" fill="#1DA1F2"/>
</svg>

<svg width="384" height="312" viewBox="0 0 384 312" fill="none" xmlns="http://www.w3.org/2000/svg">
  <title>twitter-logo</title>
  <path d="M120.764 312c144.912 0 224.16-120.023 224.16-224.103 0-3.409-.069-6.802-.223-10.18A160.187 160.187 0 0 0 384 36.93c-14.117 6.274-29.307 10.497-45.243 12.401 16.266-9.75 28.753-25.177 34.645-43.564a158.053 158.053 0 0 1-50.028 19.118C308.997 9.575 288.53 0 265.866 0c-43.507 0-78.789 35.273-78.789 78.753 0 6.181.693 12.192 2.045 17.96-65.479-3.295-123.542-34.637-162.4-82.294a78.539 78.539 0 0 0-10.667 39.588c0 27.327 13.908 51.45 35.06 65.563a78.218 78.218 0 0 1-35.682-9.851c-.011.33-.011.653-.011 1.006 0 38.144 27.156 69.992 63.205 77.209a78.923 78.923 0 0 1-20.774 2.771 78.434 78.434 0 0 1-14.807-1.419c10.03 31.295 39.114 54.069 73.597 54.705-26.965 21.129-60.933 33.715-97.85 33.715A160.14 160.14 0 0 1 0 276.615c34.867 22.343 76.27 35.38 120.768 35.38" fill="#1DA1F2"/>
</svg>
